X: 526
T: Dane Dane Benleri Var
C: Muharrem Akkuş
O: Turkey
F: http://compmusic.upf.edu/node/140
N: hicaz--turku--nimsofyan--dane_dane--kirsehir
N: makam= hicaz
N: form= turku
N: usul= nimsofyan = 2/4
M: 2/4
L: 1/16
K: C _7/8B ^f ^c 
Q: 1/4=72
%%MIDI tuningsystem comma53
z2ee e2e2  | e2ee e2e2  | e2g=f e2ed  | \
w:   |   |   | 
d2e2 eddc  | 
w:   | 
c2d2 cdc2  | z2e2 edd2  | d2e2 eddc  | c2d2 dccB  | 
w:   |   |   |   | 
B2c2 cBBA  | GB2A ABA2  | z2e2 eddc  | d2g=f eded  | 
w:   |   |   |   | 
dcde dccB  | B2c2 cBBA  | G2BA A2A2  | z2e2 eddc  | 
w:   |   |   |   | 
d2g=f eded  | dcde dccB  | B2c2 cBBA  | 
w:   |   |   | 
G2BA A2A2  | z2ee e2e2  | z2ee e2e2  | ze2e e2e2  | \
w:   |   |   |  Da ne  da ne   | 
ee2e ee=fe  | 
w:  *  ben le ri  var   | 
=f{g}fgf e2ed  | d2e2 edcd  | dd{e}dc cdc2  | \
w:  yü *  zün *  *  de   |  yü zün de   |  yü zün *  *  *  de    | 
z2ee eddc  | 
w:  Can_ a lı *  cı   | 
dde2 eddc  | dcd2 dccB  | BBc2 cB2z  | AA{c}BA A4  | 
w:  ba kış *  la *  rı   |  gö zün *  de   |  gö zün *  de   |  gö zün *  *  *  de    | 
z2ee eddc  | dde2 eddc  | dcd2 dccB  | 
w:  Can_ a lı *  cı   |  ba kış *  la *  rı   |  gö zün *  de   | 
BBc2 cB2z  | AA{c}BA A4  | z2ee e2e2  | \
w:  gö zün *  de   |  gö zün *  *  *  de    |  Bin bir  tat  var   | 
ee3 e2e2  | =f{g}fgf e2ed  | 
w:  e dâ sın da   |  na *  zın *  *  da   | 
dde2 eddc  | cc{e}dc cdc2  | z2e=f eddc  | 
w:  na zın *  da   |  na zın *  *  *  da    |  Dün *  ya *  da   | 
d2e=f eddc  | d3d dccB  | B2c2 cBBA  | A2BA A4  | 
w:  yâr dan  *  tat *  lı   |  yâr  m'o la   |  var  m'o la   |  var  m'o *  la    | 
z2ee eddc  | dd{g}=f2 eddc  | zd2d dccB  | 
w:  Sal la nı  *  sal  |  la nı  *  *  ge *  len   |  yâr  m'o la   | 
_3/4B2c2 c_7/8BBA  | A2BA A4  | z2e=f eddc  | \
w:  yâr  m'o la   |  yâr  m'o *  la    |  Dün *  ya *  da   | 
d2e=f eddc  | 
w:  yâr dan  *  tat *  lı   | 
d3d dccB  | B2c2 cBBA  | A2BA A4  | z2ee eddc  | 
w:  yâr  m'o la   |  var  m'o la   |  var  m'o *  la    |  Sal la nı  *  sal  | 
dd{g}=f2 eddc  | zd2d dccB  | _3/4B2c2 c_7/8BBA  | \
w:  la nı  *  *  ge *  len   |  yâr  m'o la   |  yâr  m'o la   | 
A2BA A4  | 
w:  yâr  m'o *  la    | 
|


